proprietary/assets/icons/geld-en-financien/inkomstenbelasting.svg

<svg enable-background="new 0 0 64 64" viewBox="0 0 64 64" xmlns="http://www.w3.org/2000/svg"><path d="m0 0h64v64h-64z" fill="none"/><path d="m50.009 35.004c-.594-1.779-1.309-3.548-2.132-5.213.94-2.195 1.342-3.83 1.003-5.578-.378-1.955-3.598-3.552-8.352-4.443-1.464-.274-2.589-.193-3.443-1.391-.324-.454-.506-1.027-.569-1.681 1.457-.598 2.484-2.027 2.484-3.698 0-2.209-1.791-4-4-4-.761 0-1.465.224-2.071.593.556 2.735-.167 3.502-.167 3.502-.366.427-.696.205-.785.131.004-.076.023-.148.023-.226 0-2.209-1.791-4-4-4s-4 1.791-4 4c0 1.671 1.027 3.1 2.483 3.698-.063.654-.245 1.227-.569 1.681-.854 1.198-1.978 1.116-3.443 1.391-4.754.891-7.973 2.489-8.352 4.443-.227 1.171-.115 2.295.262 3.567 3.436-1.742 9.735-2.83 17.119-2.83.09.148-.029.453-.557.547-.481.086-11.272 1.239-16.31 5.352-2.104 4.594-3.458 9.792-3.413 13.814.067 5.872 4.187 10.337 20.28 10.337 1.261 0 2.44-.031 3.558-.084-.043-1.384-.058-2.735-.058-3.916 0-3.208.105-7.662.606-10.666.403-2.424 2.302-4.324 4.727-4.728 2.709-.451 6.587-.58 9.676-.602zm-19.968-15.973c.293-.802.488-1.779.472-2.942.403-.328.737-.73.987-1.19.25.46.584.861.987 1.19-.016 1.162.179 2.14.472 2.942-1.642-.042-1.276-.042-2.918 0z"/><path d="m55.794 51.93c-.847 0-1.025.976-1.025 1.795 0 1.633.508 1.853 1.005 1.853.706 0 1.063-.552 1.063-1.641.001-1.799-.595-2.007-1.043-2.007z"/><path d="m46.225 46.307c-.863 0-1.044.976-1.044 1.795 0 1.632.518 1.853 1.024 1.853.863 0 1.044-.892 1.044-1.641.001-1.799-.584-2.007-1.024-2.007z"/><path d="m63.435 40.826c-.195-1.173-1.087-2.065-2.261-2.261-3.391-.565-9.044-.565-10.174-.565s-6.783 0-10.174.565c-1.173.196-2.065 1.088-2.26 2.261-.566 3.391-.566 9.044-.566 10.174s0 6.783.565 10.174c.195 1.173 1.087 2.065 2.26 2.261 3.392.565 9.045.565 10.175.565s6.783 0 10.174-.565c1.174-.196 2.066-1.088 2.261-2.261.565-3.391.565-9.044.565-10.174 0-3.393 0-6.783-.565-10.174zm-20.576 7.449c0-2.896 1.844-3.924 3.423-3.924 2.09 0 3.289 1.374 3.289 3.77 0 2.617-1.785 3.809-3.443 3.809-1.491 0-3.269-.634-3.269-3.655zm6.434 9.727-1.839-.727 5.232-13.277 1.839.727zm6.405-.449c-1.491 0-3.269-.634-3.269-3.655 0-2.896 1.844-3.924 3.423-3.924 2.09 0 3.289 1.374 3.289 3.77 0 2.631-1.729 3.809-3.443 3.809z"/></svg>

<?xml version="1.0" encoding="utf-8"?>
<!-- Generator: Adobe Illustrator 25.2.0, SVG Export Plug-In . SVG Version: 6.00 Build 0)  -->
<svg version="1.1" xmlns="http://www.w3.org/2000/svg" xmlns:xlink="http://www.w3.org/1999/xlink" x="0px" y="0px"
	 viewBox="0 0 64 64" style="enable-background:new 0 0 64 64;" xml:space="preserve">
<style type="text/css">
	.st0{fill:none;}
	.st1{fill:#FFFFFF;}
	.st2{fill:#B3B3B3;}
</style>
<g id="Box">
	<rect class="st0" width="64" height="64"/>
</g>
<g id="Icon">
	<g>
		<path d="M50.009,35.004c-0.594-1.779-1.309-3.548-2.132-5.213c0.94-2.195,1.342-3.83,1.003-5.578
			c-0.378-1.955-3.598-3.552-8.352-4.443c-1.464-0.274-2.589-0.193-3.443-1.391c-0.324-0.454-0.506-1.027-0.569-1.681
			C37.973,16.1,39,14.671,39,13c0-2.209-1.791-4-4-4c-0.761,0-1.465,0.224-2.071,0.593c0.556,2.735-0.167,3.502-0.167,3.502
			c-0.366,0.427-0.696,0.205-0.785,0.131C31.981,13.15,32,13.078,32,13c0-2.209-1.791-4-4-4s-4,1.791-4,4
			c0,1.671,1.027,3.1,2.483,3.698c-0.063,0.654-0.245,1.227-0.569,1.681c-0.854,1.198-1.978,1.116-3.443,1.391
			c-4.754,0.891-7.973,2.489-8.352,4.443c-0.227,1.171-0.115,2.295,0.262,3.567c3.436-1.742,9.735-2.83,17.119-2.83
			c0.09,0.148-0.029,0.453-0.557,0.547c-0.481,0.086-11.272,1.239-16.31,5.352c-2.104,4.594-3.458,9.792-3.413,13.814
			C11.287,50.535,15.407,55,31.5,55c1.261,0,2.44-0.031,3.558-0.084C35.015,53.532,35,52.181,35,51
			c0-3.208,0.105-7.662,0.606-10.666c0.403-2.424,2.302-4.324,4.727-4.728C43.042,35.155,46.92,35.026,50.009,35.004z
			 M30.041,19.031c0.293-0.802,0.488-1.779,0.472-2.942c0.403-0.328,0.737-0.73,0.987-1.19c0.25,0.46,0.584,0.861,0.987,1.19
			c-0.016,1.162,0.179,2.14,0.472,2.942C31.317,18.989,31.683,18.989,30.041,19.031z"/>
		<path d="M55.794,51.93c-0.847,0-1.025,0.976-1.025,1.795c0,1.633,0.508,1.853,1.005,1.853c0.706,0,1.063-0.552,1.063-1.641
			C56.838,52.138,56.242,51.93,55.794,51.93z"/>
		<path d="M46.225,46.307c-0.863,0-1.044,0.976-1.044,1.795c0,1.632,0.518,1.853,1.024,1.853c0.863,0,1.044-0.892,1.044-1.641
			C47.25,46.515,46.665,46.307,46.225,46.307z"/>
		<path d="M63.435,40.826c-0.195-1.173-1.087-2.065-2.261-2.261C57.783,38,52.13,38,51,38c-1.13,0-6.783,0-10.174,0.565
			c-1.173,0.196-2.065,1.088-2.26,2.261C38,44.217,38,49.87,38,51c0,1.13,0,6.783,0.565,10.174c0.195,1.173,1.087,2.065,2.26,2.261
			C44.217,64,49.87,64,51,64s6.783,0,10.174-0.565c1.174-0.196,2.066-1.088,2.261-2.261C64,57.783,64,52.13,64,51
			C64,47.607,64,44.217,63.435,40.826z M42.859,48.275c0-2.896,1.844-3.924,3.423-3.924c2.09,0,3.289,1.374,3.289,3.77
			c0,2.617-1.785,3.809-3.443,3.809C44.637,51.93,42.859,51.296,42.859,48.275z M49.293,58.002l-1.839-0.727l5.232-13.277
			l1.839,0.727L49.293,58.002z M55.698,57.553c-1.491,0-3.269-0.634-3.269-3.655c0-2.896,1.844-3.924,3.423-3.924
			c2.09,0,3.289,1.374,3.289,3.77C59.141,56.375,57.412,57.553,55.698,57.553z"/>
	</g>
</g>
</svg>
